Artboard/img/text_icon.svg

<svg width="113" height="113" viewBox="0 0 113 113" fill="none" xmlns="http://www.w3.org/2000/svg">
<path fill-rule="evenodd" clip-rule="evenodd" d="M104.616 72.4854L97.2131 75.4816C99.7419 70.58 101.861 65.8029 103.534 61.2162C105.052 57.0596 106.17 53.1299 106.891 49.451C107.915 57.0065 107.238 64.8768 104.616 72.4854ZM79.1969 101.375L66.4019 96.0047C67.0401 95.1152 67.682 94.1909 68.3275 93.2428L101.406 79.8523C96.3634 89.3058 88.5415 96.757 79.1969 101.375ZM60.6951 106.458C61.2781 105.154 61.9273 103.498 62.7126 101.41C62.8046 101.168 62.8947 100.919 62.9867 100.672L71.6178 104.296C68.0553 105.418 64.4028 106.143 60.6951 106.458ZM59.4408 90.7701L59.3341 90.8121L56.6361 91.9048L56.5 91.9597L56.3639 91.9048L53.6659 90.8121L53.5592 90.7701L52.4208 90.3088C51.4755 87.3822 50.486 84.137 49.4984 80.6467C50.8262 80.4746 52.224 80.3538 53.6861 80.2861C53.7211 80.2843 53.756 80.2806 53.7928 80.2788C54.6719 80.2403 55.5749 80.2202 56.5 80.2184C57.4251 80.2202 58.3299 80.2403 59.2072 80.2788C59.244 80.2806 59.2789 80.2843 59.3139 80.2861C60.7778 80.3538 62.1738 80.4746 63.5016 80.6467C62.514 84.137 61.5245 87.3822 60.5811 90.3088L59.4408 90.7701ZM41.3822 104.296L50.0133 100.672C50.1053 100.919 50.1973 101.168 50.2874 101.41C51.0727 103.498 51.7219 105.154 52.3049 106.458C48.5972 106.143 44.9465 105.418 41.3822 104.296ZM11.5936 79.8523L44.6743 93.2428C45.318 94.1909 45.9599 95.1152 46.5981 96.0047L33.8031 101.375C24.4585 96.757 16.6366 89.3058 11.5936 79.8523ZM6.10932 49.451C6.83027 53.1299 7.94846 57.0596 9.46576 61.2162C11.1394 65.8029 13.2599 70.58 15.7869 75.4816L8.38434 72.4854C5.76172 64.8768 5.08308 57.0065 6.10932 49.451ZM11.715 33.2419C12.1012 31.9314 12.607 30.7307 13.2323 29.6271L13.2268 29.6216C18.5714 20.9734 26.5698 13.8426 36.6648 9.60724C38.081 9.01057 39.5155 8.4871 40.9611 8.02403C40.5896 8.57862 40.2365 9.16065 39.9036 9.77014C38.3789 12.565 37.2607 15.9803 36.5471 19.9759C34.7448 20.924 33.1355 22.035 31.7286 23.3144C26.8861 27.7089 24.4327 33.9411 24.4327 41.837C24.4327 47.8916 25.8875 54.9474 28.7565 62.8086C31.1014 69.2311 34.3144 76.0307 38.309 83.0169C38.7045 83.7088 39.1054 84.3969 39.51 85.0833L24.0244 78.8145C22.9504 76.9403 21.8745 74.9746 20.8188 72.9246C12.2778 56.3568 9.04643 42.2635 11.715 33.2419ZM42.6604 77.0282C42.5317 77.5407 42.414 78.0696 42.3055 78.6132C41.568 77.2862 40.8342 75.9227 40.1096 74.5188C31.5704 57.9491 28.3372 43.8558 31.0058 34.8343C31.9162 31.7594 33.4721 29.2683 35.7287 27.2916C35.6515 28.7101 35.6092 30.1762 35.6092 31.699C35.6092 47.1357 39.5449 65.1697 42.6604 77.0282ZM41.6912 23.9092C41.6967 23.9055 41.7041 23.9037 41.7096 23.9019C44.9962 22.6152 49 21.8574 53.6861 21.6378C53.7211 21.636 53.756 21.6341 53.7928 21.6323C54.6719 21.5939 55.5749 21.5737 56.5 21.5719C57.4251 21.5737 58.3299 21.5939 59.2072 21.6323C59.244 21.6341 59.2789 21.636 59.3139 21.6378C64 21.8574 68.0038 22.6152 71.2904 23.9019C71.2959 23.9037 71.3033 23.9055 71.3106 23.9092C72.4969 34.309 71.112 48.8159 67.1707 66.2477C66.4773 69.3171 65.7454 72.2932 64.9968 75.1503C63.2074 74.8959 61.3186 74.7293 59.3341 74.6506C58.4477 74.6158 57.5428 74.5957 56.6159 74.5957C56.5772 74.5957 56.5386 74.5975 56.5 74.5975C56.4614 74.5975 56.4228 74.5957 56.3823 74.5957C55.4572 74.5957 54.5523 74.6158 53.6659 74.6506C51.6814 74.7293 49.7926 74.8959 48.0032 75.1503C47.2565 72.2932 46.5245 69.3171 45.8311 66.2477C41.8898 48.8159 40.5031 34.309 41.6912 23.9092ZM44.6522 12.8981C46.701 8.8916 49.6713 6.57078 53.6861 5.86062C54.5505 5.7087 55.4646 5.63 56.4301 5.62451C56.4522 5.62451 56.4761 5.62451 56.5 5.62451C56.5239 5.62451 56.5478 5.62451 56.5699 5.62451C57.5336 5.63 58.4477 5.7087 59.3139 5.86062C63.3287 6.57078 66.3008 8.8916 68.3478 12.8981C69.0393 14.2544 69.6204 15.8046 70.0986 17.5324C66.9059 16.6722 63.3122 16.1615 59.3341 16.0041C58.4477 15.9694 57.5428 15.9492 56.6159 15.9492C56.5772 15.9492 56.5386 15.9492 56.5 15.9492C56.4614 15.9492 56.4228 15.9492 56.3823 15.9492C55.4572 15.9492 54.5523 15.9694 53.6659 16.0041C49.6878 16.1615 46.096 16.6722 42.9014 17.5324C43.3796 15.8046 43.9607 14.2544 44.6522 12.8981ZM77.2713 27.2916C79.5279 29.2683 81.0838 31.7594 81.9942 34.8343C84.6628 43.8558 81.4314 57.9491 72.8904 74.5188C72.1658 75.9227 71.432 77.2862 70.6964 78.6132C70.586 78.0696 70.4683 77.5407 70.3396 77.0282C73.4551 65.1697 77.3908 47.1357 77.3908 31.699C77.3908 30.1762 77.3485 28.7101 77.2713 27.2916ZM76.3352 9.60724C86.4302 13.8426 94.4286 20.9734 99.775 29.6216L99.7658 29.6271C100.393 30.7307 100.899 31.9314 101.285 33.2419C103.955 42.2635 100.72 56.3568 92.1812 72.9246C91.1255 74.9746 90.0496 76.9403 88.9756 78.8145L73.49 85.0833C73.8946 84.3969 74.2974 83.7088 74.691 83.0169C78.6856 76.0307 81.8986 69.2311 84.2435 62.8086C87.1125 54.9474 88.5673 47.8916 88.5673 41.837C88.5673 33.9411 86.112 27.7089 81.2733 23.3144C79.8645 22.035 78.2552 20.924 76.4529 19.9759C75.7374 15.9803 74.6211 12.565 73.0964 9.77014C72.7654 9.16065 72.4104 8.57862 72.0389 8.02403C73.4863 8.4871 74.919 9.01057 76.3352 9.60724ZM104.412 26.4021C104.309 26.23 104.206 26.058 104.097 25.8896L104.093 25.8951C98.1584 16.6338 89.4464 9.00874 78.5293 4.42566C71.535 1.48986 64.1711 0 56.6416 0C56.6177 0 56.5956 0.0018303 56.5736 0.0018303C56.5515 0.0018303 56.5313 0 56.5092 0H56.5H56.4908C56.4687 0 56.4485 0.0018303 56.4264 0.0018303C56.4044 0.0018303 56.3823 0 56.3602 0C48.8289 0 41.465 1.48986 34.4689 4.42566C23.5536 9.00874 14.8416 16.6338 8.90666 25.8951L8.90298 25.8896C8.79447 26.058 8.69148 26.23 8.58849 26.4021C0.661779 39.0623 -2.12084 54.6948 1.68618 69.7747C2.27839 72.1193 3.03243 74.4529 3.94833 76.7573C4.10466 77.1526 4.26466 77.548 4.43018 77.9415C9.16598 89.11 17.2196 98.1608 27.173 104.159C29.2641 105.42 31.4398 106.544 33.6854 107.526C40.7036 110.594 48.4096 112.261 56.4062 112.261C56.4375 112.261 56.4687 112.26 56.5 112.26C56.5313 112.26 56.5625 112.261 56.5938 112.261C64.5904 112.261 72.2964 110.594 79.3146 107.526C81.5602 106.544 83.7359 105.42 85.8288 104.159C95.7804 98.1608 103.836 89.11 108.568 77.9415C108.735 77.548 108.895 77.1526 109.052 76.7573C109.969 74.4529 110.722 72.1193 111.314 69.7747C115.121 54.6948 112.338 39.0623 104.412 26.4021Z" fill="#AA9C8D"/>
</svg>

<svg width="113" height="113" fill="none" xmlns="http://www.w3.org/2000/svg"><path fill-rule="evenodd" clip-rule="evenodd" d="M104.616 72.485l-7.403 2.997c2.529-4.902 4.648-9.68 6.321-14.266 1.518-4.156 2.636-8.086 3.357-11.765a49.962 49.962 0 01-2.275 23.034zm-25.42 28.89l-12.794-5.37c.638-.89 1.28-1.814 1.925-2.762l33.079-13.39a50.516 50.516 0 01-22.21 21.522zm-18.5 5.083c.582-1.304 1.231-2.96 2.017-5.048.092-.242.182-.491.274-.738l8.63 3.624a50.562 50.562 0 01-10.922 2.162zM59.44 90.77l-.107.042-2.698 1.093-.136.055-.136-.055-2.698-1.093-.107-.042-1.138-.461a276.36 276.36 0 01-2.923-9.662 50.967 50.967 0 014.188-.36l.107-.008a64.8 64.8 0 012.707-.06c.925.001 1.83.021 2.707.06l.107.007c1.464.068 2.86.189 4.188.36a280.716 280.716 0 01-2.92 9.663l-1.141.461zm-18.059 13.526l8.631-3.624.274.738c.786 2.088 1.435 3.744 2.018 5.048a50.583 50.583 0 01-10.923-2.162zM11.594 79.852l33.08 13.39a131.23 131.23 0 001.924 2.763l-12.795 5.37a50.519 50.519 0 01-22.21-21.523zM6.109 49.451c.721 3.679 1.84 7.609 3.357 11.765 1.673 4.587 3.794 9.364 6.32 14.266l-7.402-2.997A49.923 49.923 0 016.11 49.451zm5.606-16.21c.386-1.31.892-2.51 1.517-3.614l-.005-.005A50.355 50.355 0 0136.665 9.607a51.59 51.59 0 014.296-1.583 22.612 22.612 0 00-1.057 1.746c-1.525 2.795-2.643 6.21-3.357 10.206-1.802.948-3.411 2.059-4.818 3.338-4.843 4.395-7.296 10.627-7.296 18.523 0 6.055 1.454 13.11 4.323 20.972 2.345 6.422 5.558 13.222 9.553 20.208.396.692.796 1.38 1.201 2.066l-15.486-6.269a149.7 149.7 0 01-3.205-5.89c-8.541-16.567-11.773-30.66-9.104-39.682zM42.66 77.029a33.176 33.176 0 00-.354 1.585 150.796 150.796 0 01-2.196-4.094c-8.54-16.57-11.773-30.663-9.104-39.685.91-3.075 2.466-5.566 4.723-7.542a80.99 80.99 0 00-.12 4.407c0 15.437 3.936 33.47 7.051 45.33zm-.969-53.119l.019-.007c3.286-1.287 7.29-2.045 11.976-2.264l.107-.006a66.027 66.027 0 012.707-.06c.925.002 1.83.022 2.707.06l.107.006c4.686.22 8.69.977 11.976 2.264.006.002.013.003.02.007 1.187 10.4-.198 24.907-4.14 42.339a269.163 269.163 0 01-2.173 8.902 56.06 56.06 0 00-5.663-.5 69.187 69.187 0 00-2.718-.054l-.116.001-.118-.001c-.925 0-1.83.02-2.716.055a56.06 56.06 0 00-5.663.5 274.1 274.1 0 01-2.172-8.903c-3.941-17.432-5.328-31.939-4.14-42.339zm2.961-11.01c2.049-4.007 5.02-6.328 9.034-7.038a16.32 16.32 0 012.744-.236h.14c.964.005 1.878.084 2.744.236 4.015.71 6.987 3.03 9.034 7.037.691 1.356 1.272 2.907 1.75 4.634-3.192-.86-6.786-1.37-10.764-1.528a69.382 69.382 0 00-2.718-.055h-.234c-.925 0-1.83.02-2.716.055-3.978.157-7.57.668-10.765 1.528.479-1.727 1.06-3.278 1.751-4.634zm32.62 14.393c2.256 1.976 3.812 4.467 4.722 7.542 2.669 9.022-.563 23.115-9.104 39.685a156.296 156.296 0 01-2.194 4.094 35.645 35.645 0 00-.356-1.585c3.115-11.858 7.05-29.892 7.05-45.329a80.99 80.99 0 00-.119-4.407zm-.937-17.685a50.368 50.368 0 0123.44 20.015l-.01.005a16.991 16.991 0 011.52 3.615c2.67 9.022-.565 23.115-9.104 39.683a149.7 149.7 0 01-3.205 5.89L73.49 85.082c.405-.686.807-1.374 1.201-2.066 3.995-6.986 7.208-13.786 9.552-20.208 2.87-7.862 4.324-14.917 4.324-20.972 0-7.896-2.455-14.128-7.294-18.523-1.408-1.279-3.018-2.39-4.82-3.338-.716-3.996-1.832-7.411-3.357-10.206a22.03 22.03 0 00-1.057-1.746c1.447.463 2.88.987 4.296 1.583zm28.077 16.795a17.114 17.114 0 00-.315-.512l-.004.005C98.158 16.634 89.446 9.01 78.529 4.425 71.535 1.49 64.171 0 56.642 0l-.068.002L56.509 0h-.019l-.064.002L56.36 0c-7.53 0-14.895 1.49-21.89 4.426-10.916 4.583-19.628 12.208-25.563 21.47l-.004-.006c-.109.168-.212.34-.315.512C.662 39.062-2.12 54.695 1.686 69.775a56.12 56.12 0 002.262 6.982c.157.396.317.791.482 1.184a56.153 56.153 0 0022.743 26.218 56.26 56.26 0 006.512 3.367 56.65 56.65 0 0022.721 4.735l.094-.001.094.001a56.65 56.65 0 0022.72-4.735 56.43 56.43 0 006.515-3.367 56.135 56.135 0 0023.223-27.402 55.902 55.902 0 002.262-6.982c3.807-15.08 1.024-30.713-6.902-43.373z" fill="#AA9C8D"/></svg>
